X: 26733
T: Milandia
R: waltz
M: 3/4
K: Gmajor
d3 cBA|G2D2D2|A3 ABc|B2G2G2|
c3 BAG|d2 A2A2|F3 GEF|D6|
d3 cBA|d2 A4|cdBdAG|A2 d4|
G2 A2 d2|b2G4|G2 EG A2|fedcAe|
d2 defd|e2a2g2|(3fef edcB|GABd A2|A6|
AGFEDC|A2 DEGB|A2 A2 DC|EDFG A2|dAGE D2|

